X: 16
T:Russian Dance. HS.16
T:Fairy Dance,aka. HS.16
M:2/4
Q:100
C:"D Major" Fairy Dance,aka
S:Henry Stables MS,Cumbria,late19thC
R:reel
O:Walthwaite,nr.Ambleside.
A:England
Z:vmp.Chris Partington
K:D
(f/g/)|f2fd|f2fd|f2fd|ecA2|f2fd|gf ed|cA Bc|d3::!
(f/g/)|a2af|b2ba|gf ge|a2ag|f2fd|gf ed|cA Bc|d3:||
